X:331
T:Honorable Mrs. Maule of Panmure
R:Strathspey
B:The Athole Collection
M:C
L:1/8
K:F
f|c<F C>A G>FD>f|c<F c>A F/G/A/B/ cA|B>GA>F G>FD>f|c>FA>G F2F:|
(3c//d//e/|~f>cf>a g>fd>e|~f>cf>a cf/g/ a<f|~g>fa>f g>fd>e|~f>ca>g ~f2 f
(3c//d//e/|
f>cf>a g>fd>g|~f>c f<a d<fc<f|B<fA<f G>FD>G|F/G/A/B/ c>A ~c2c||

